flags/easter_island.svg

<svg width="512" height="512" viewBox="0 0 512 512" fill="none" xmlns="http://www.w3.org/2000/svg">
<rect width="512" height="512" fill="var(--flag-palette-white, #eeeeee)"/>
<path d="M334 211.5V233.7H364.5C351.686 251.54 334.689 265.962 315 275.7C311.534 272.036 307.133 269.388 302.272 268.042C297.411 266.695 292.275 266.702 287.418 268.06C282.56 269.419 278.166 272.078 274.709 275.75C271.252 279.423 268.863 283.969 267.8 288.9C259.949 289.59 252.052 289.59 244.2 288.9C243.107 283.99 240.702 279.469 237.242 275.818C233.782 272.168 229.396 269.524 224.552 268.169C219.708 266.815 214.587 266.799 209.735 268.126C204.883 269.452 200.482 272.07 197 275.7C177.312 265.962 160.314 251.54 147.5 233.7H178.1V211.5H100.1C100.1 252.834 116.52 292.475 145.748 321.703C174.975 350.93 214.616 367.35 255.95 367.35C297.284 367.35 336.925 350.93 366.153 321.703C395.38 292.475 411.8 252.834 411.8 211.5H334Z" fill="var(--flag-palette-bright-red, #d80027)"/>
</svg>

<svg xmlns="http://www.w3.org/2000/svg" width="512" height="512" fill="none"><path fill="var(--flag-palette-white, #eeeeee)" d="M0 0h512v512H0z"/><path fill="var(--flag-palette-bright-red, #d80027)" d="M334 211.5v22.2h30.5a134 134 0 0 1-49.5 42 27.7 27.7 0 0 0-47.2 13.2q-11.8 1-23.6 0a27.8 27.8 0 0 0-47.2-13.2 134 134 0 0 1-49.5-42h30.6v-22.2h-78a155.9 155.9 0 0 0 311.7 0z"/></svg>
